assets/img/undraw_mobile_prototyping_grmd.svg

<svg data-name="Layer 1" xmlns="http://www.w3.org/2000/svg" width="1075.03" height="766.356"><ellipse cx="952.03" cy="736.356" rx="123" ry="30" fill="#3f3d56"/><path d="M521.336 102.897v397.01a17.839 17.839 0 0 1-17.838 17.83H342.32a17.808 17.808 0 0 1-17.839-17.83v-397.01a17.838 17.838 0 0 1 17.839-17.839h24.123v3.095a14.688 14.688 0 0 0 14.689 14.689h81.97a14.688 14.688 0 0 0 14.689-14.689v-3.095h25.706a17.833 17.833 0 0 1 17.84 17.839z"/><path fill="#3f3d56" d="M331.562 151.412H514.28V240.40800000000002H331.562z"/><path d="M405.128 212.52c4.783 17.682 21.166 28.632 21.166 28.632s8.629-17.716 3.845-35.397-21.166-28.632-21.166-28.632-8.628 17.717-3.845 35.398z" fill="#fff"/><path d="M412.157 208.721c13.124 12.777 14.727 32.417 14.727 32.417s-19.676-1.074-32.8-13.85-14.729-32.418-14.729-32.418 19.677 1.075 32.802 13.851z"/><path d="M448.64 212.52c-4.782 17.682-21.165 28.632-21.165 28.632s-8.629-17.716-3.846-35.397 21.167-28.632 21.167-28.632 8.628 17.717 3.845 35.398z" fill="#fff"/><path d="M441.612 208.721c-13.124 12.777-14.728 32.417-14.728 32.417s19.677-1.074 32.802-13.85 14.728-32.418 14.728-32.418-19.677 1.075-32.802 13.851z"/><path fill="#f0f0f0" d="M347.904 290.246H497.937V298.48199999999997H347.904z"/><path fill="#f0f0f0" d="M347.904 303.514H497.937V311.75H347.904z"/><path fill="#f0f0f0" d="M347.904 316.783H497.937V325.019H347.904z"/><path fill="#f0f0f0" d="M347.904 330.052H497.937V338.288H347.904z"/><path transform="rotate(35.371 558.933 341.298)" fill="#f0f0f0" d="M464.917 452.213H505.871V493.16700000000003H464.917z"/><path d="M427.451 443.03a9.45 9.45 0 1 1 9.451-9.452 9.462 9.462 0 0 1-9.45 9.451zm0-17.328a7.876 7.876 0 1 0 7.876 7.876 7.885 7.885 0 0 0-7.876-7.876z" fill="#3f3d56"/><path d="M196.855 17.839v397.009a17.839 17.839 0 0 1-17.839 17.83H17.84A17.808 17.808 0 0 1 0 414.849V17.838A17.838 17.838 0 0 1 17.839 0h24.123v3.095A14.688 14.688 0 0 0 56.65 17.784h81.971A14.688 14.688 0 0 0 153.31 3.095V0h25.706a17.833 17.833 0 0 1 17.839 17.839z" fill="#f2f2f2"/><path d="M176.41 216.781H18.893V75.805h157.515zm-155.94-1.575h154.364V77.38H20.469z" fill="#3f3d56"/><path transform="rotate(-48.205 54.212 249.539)" fill="#3f3d56" d="M159.349 108.532H160.92399999999998V317.697H159.349z"/><path transform="rotate(-41.794 41.385 261.533)" fill="#3f3d56" d="M55.554 212.327H264.719V213.902H55.554z"/><path fill="#3f3d56" d="M19.682 257.735H175.62199999999999V259.31H19.682z"/><path fill="#3f3d56" d="M19.682 271.911H175.62199999999999V273.486H19.682z"/><path fill="#3f3d56" d="M19.682 286.088H175.62199999999999V287.663H19.682z"/><path fill="#3f3d56" d="M19.682 300.264H97.652V301.839H19.682z"/><path fill="#3f3d56" d="M19.682 314.44H97.652V316.015H19.682z"/><path d="M845.03 17.839v397.009a17.839 17.839 0 0 1-17.839 17.83H666.014a17.808 17.808 0 0 1-17.839-17.83V17.838A17.838 17.838 0 0 1 666.014 0h24.123v3.095a14.688 14.688 0 0 0 14.689 14.689h81.97a14.688 14.688 0 0 0 14.689-14.689V0h25.706a17.833 17.833 0 0 1 17.839 17.839z" fill="#f2f2f2"/><path fill="#3f3d56" d="M669.432 203.392H825.3720000000001V204.96699999999998H669.432z"/><path fill="#3f3d56" d="M669.432 244.346H825.3720000000001V245.921H669.432z"/><path fill="#3f3d56" d="M669.432 285.3H825.3720000000001V286.875H669.432z"/><circle cx="743.242" cy="117.997" r="25.602"/><path d="M785.993 196.304H797.019V221.506H785.993z"/><path d="M689.121 236.47H700.1469999999999V261.672H689.121z"/><path d="M753.703 276.637H764.7289999999999V301.839H753.703z"/><path d="M746.603 146.687a31.503 31.503 0 1 1 31.503-31.503 31.539 31.539 0 0 1-31.503 31.503zm0-61.431a29.928 29.928 0 1 0 29.928 29.928 29.962 29.962 0 0 0-29.928-29.928z" fill="#3f3d56"/><path transform="rotate(-39.546 187.265 367.493)" fill="#3f3d56" d="M310.446 264.368H312.446V363.625H310.446z"/><path d="M288.245 294.751c-5.241-3.038-12.5-6.182-18.219-7.126l9.525-3.403 5.143-8.708c-.156 5.793 1.558 13.517 3.551 19.237z" fill="#3f3d56"/><path transform="rotate(-50.467 555.652 346.879)" fill="#3f3d56" d="M608.161 312.996H707.4179999999999V314.99699999999996H608.161z"/><path d="M556.021 294.751c1.991-5.721 3.705-13.445 3.55-19.238l5.144 8.709 9.523 3.402c-5.718.943-12.977 4.088-18.217 7.127z" fill="#3f3d56"/><path d="M1016.53 377.856s0 146-23 199l-53 119s-34-2-36-16l40-124 24-73 6-114z" fill="#2f2e41"/><path d="M983.53 381.856l-9 61 6 134 3 74s12 33 8 36l-8 6s-32-4-33-6-20-153-20-153-39-122-37-124 11-32 11-32z" fill="#2f2e41"/><path d="M990.53 682.856l4 23s11 47 0 47-31-13-32-21 2-44 2-44z" fill="#2f2e41"/><path d="M939.53 690.856s8 16 13 18 27.77 15.083 14.385 23.542-27.385.458-27.385.458l-46-25s6-25 15-27 31 10 31 10z" fill="#2f2e41"/><circle cx="929.53" cy="120.856" r="36" fill="#ffb8b8"/><path d="M959.53 123.856s7 46 14 52-15 27-25 26-21-23-21-23 3-29-2-37 34-18 34-18z" fill="#ffb8b8"/><path d="M951.53 182.856l16.985-15.678a64.292 64.292 0 0 0 20.015 16.678c13 7-25 79-25 79l-61-76s19.402-12.896 25.701-17.948z" fill="#3f3d56"/><path d="M961.53 243.856s26.8-46.719 23.9-61.86c0 0 39.1 9.86 41.1 22.86s-19 60-19 60 17 119 7 120-110 2-112-3 2-20-4-25-13-2-10-10 16-18 12-24-5-4-4-8-2-57-2-57-21-58-16-62 31.228-13.86 31.228-13.86z" fill="#3f3d56"/><path d="M1041.53 399.856s-3 40-20 38 3-45 3-45zm-149-1s6 24 13 22v-28l-3-5z" fill="#ffb8b8"/><path d="M958.892 126.035a6.222 6.222 0 0 0-1.027-2.895 4.694 4.694 0 0 0-2.188-1.386 9.833 9.833 0 0 0-11.717 5.02c-.923 2.014-1.367 4.608-3.392 5.505-2.354 1.042-4.966-1.177-5.89-3.58s-.95-5.126-2.183-7.387c-1.462-2.68-4.418-4.26-7.405-4.892-2.475-.525-5.504-.8-6.62-3.07a6.078 6.078 0 0 1-.452-2.745 28.964 28.964 0 0 1 1.787-9.791c-9.797-1.957-18.512 7.604-28.5 7.758a7.525 7.525 0 0 1-3.676-.72c-2.217-1.184-3.18-3.809-3.848-6.231q-1.064-3.86-1.751-7.81l3.2 1.467a12.55 12.55 0 0 1-1.426-5.512 13.192 13.192 0 0 1 4.918.415l.233-5.734c2.471 3.134 7.4 2.032 11.119.581 7.176-2.8 14.316-5.83 21.849-7.446s15.606-1.735 22.729 1.2c7.485 3.085 13.256 9.22 18.34 15.522 2.817 3.493 5.541 7.164 7.063 11.386a27.595 27.595 0 0 1-.06 17.6c-1.64 5.134-4.688 11.345-8.792 14.902-1.435-3.634-1.63-8.27-2.311-12.157z" fill="#2f2e41"/><path d="M890.53 192.856l-13 3s-15 16-16 31-1 90-1 90l19 62s-2 14 0 14 3-3 3 1-5 0 0 4l10 8 16.713-22.158s1.287-8.842-1.713-10.842-3-3-2-6 3-4 2-6-4-5-4-7 0-4-1-5-8-25-8-25l4-78zm126 5l10 5s16 48 16 90 3 70 3 70 5 12 3 12-4 0-2 3 3 2 2 5-2-2-1 3 0 7-2 7-2 13-2 13l-24-9s4-5 3-7a9.965 9.965 0 0 1-1-4s5-1 0-3-3-2-2-8 4-5 1-6-21-94-21-94z" fill="#3f3d56"/><circle cx="951.515" cy="183.178" r="3" fill="#2f2e41"/><circle cx="951.515" cy="193.178" r="3" fill="#2f2e41"/></svg>

<svg data-name="Layer 1" xmlns="http://www.w3.org/2000/svg" width="1075.03" height="766.356"><ellipse cx="952.03" cy="736.356" rx="123" ry="30" fill="#3f3d56"/><path d="M521.336 102.897v397.01a17.839 17.839 0 0 1-17.838 17.83H342.32a17.808 17.808 0 0 1-17.839-17.83v-397.01a17.838 17.838 0 0 1 17.839-17.839h24.123v3.095a14.688 14.688 0 0 0 14.689 14.689h81.97a14.688 14.688 0 0 0 14.689-14.689v-3.095h25.706a17.833 17.833 0 0 1 17.84 17.839z"/><path fill="#3f3d56" d="M331.562 151.412H514.28v88.996H331.562z"/><path d="M405.128 212.52c4.783 17.682 21.166 28.632 21.166 28.632s8.629-17.716 3.845-35.397-21.166-28.632-21.166-28.632-8.628 17.717-3.845 35.398z" fill="#fff"/><path d="M412.157 208.721c13.124 12.777 14.727 32.417 14.727 32.417s-19.676-1.074-32.8-13.85-14.729-32.418-14.729-32.418 19.677 1.075 32.802 13.851z"/><path d="M448.64 212.52c-4.782 17.682-21.165 28.632-21.165 28.632s-8.629-17.716-3.846-35.397 21.167-28.632 21.167-28.632 8.628 17.717 3.845 35.398z" fill="#fff"/><path d="M441.612 208.721c-13.124 12.777-14.728 32.417-14.728 32.417s19.677-1.074 32.802-13.85 14.728-32.418 14.728-32.418-19.677 1.075-32.802 13.851z"/><path fill="#f0f0f0" d="M347.904 290.246h150.033v8.236H347.904zm0 13.268h150.033v8.236H347.904zm0 13.269h150.033v8.236H347.904zm0 13.269h150.033v8.236H347.904z"/><path fill="#f0f0f0" d="M418.065 377.318l33.395 23.706-23.707 33.395-33.395-23.707z"/><path d="M427.451 443.03a9.45 9.45 0 1 1 9.451-9.452 9.462 9.462 0 0 1-9.45 9.451zm0-17.328a7.876 7.876 0 1 0 7.876 7.876 7.885 7.885 0 0 0-7.876-7.876z" fill="#3f3d56"/><path d="M196.855 17.839v397.009a17.839 17.839 0 0 1-17.839 17.83H17.84A17.808 17.808 0 0 1 0 414.849V17.838A17.838 17.838 0 0 1 17.839 0h24.123v3.095A14.688 14.688 0 0 0 56.65 17.784h81.971A14.688 14.688 0 0 0 153.31 3.095V0h25.706a17.833 17.833 0 0 1 17.839 17.839z" fill="#f2f2f2"/><path d="M176.41 216.781H18.893V75.805h157.515zm-155.94-1.575h154.364V77.38H20.469z" fill="#3f3d56"/><path fill="#3f3d56" d="M19.157 77.18l1.05-1.175 155.94 139.402-1.05 1.174z"/><path fill="#3f3d56" d="M19.155 215.405l155.942-139.4 1.05 1.175L20.205 216.579z"/><path fill="#3f3d56" d="M19.682 257.735h155.94v1.575H19.682zm0 14.176h155.94v1.575H19.682zm0 14.177h155.94v1.575H19.682zm0 14.176h77.97v1.575h-77.97zm0 14.176h77.97v1.575h-77.97z"/><path d="M845.03 17.839v397.009a17.839 17.839 0 0 1-17.839 17.83H666.014a17.808 17.808 0 0 1-17.839-17.83V17.838A17.838 17.838 0 0 1 666.014 0h24.123v3.095a14.688 14.688 0 0 0 14.689 14.689h81.97a14.688 14.688 0 0 0 14.689-14.689V0h25.706a17.833 17.833 0 0 1 17.839 17.839z" fill="#f2f2f2"/><path fill="#3f3d56" d="M669.432 203.392h155.94v1.575h-155.94zm0 40.954h155.94v1.575h-155.94zm0 40.954h155.94v1.575h-155.94z"/><circle cx="743.242" cy="117.997" r="25.602"/><path d="M785.993 196.304h11.026v25.202h-11.026zm-96.872 40.166h11.026v25.202h-11.026zm64.582 40.167h11.026v25.202h-11.026z"/><path d="M746.603 146.687a31.503 31.503 0 1 1 31.503-31.503 31.539 31.539 0 0 1-31.503 31.503zm0-61.431a29.928 29.928 0 1 0 29.928 29.928 29.962 29.962 0 0 0-29.928-29.928z" fill="#3f3d56"/><path fill="#3f3d56" d="M216.592 209.543l1.542-1.274 63.197 76.539-1.542 1.273z"/><path d="M288.245 294.751c-5.241-3.038-12.5-6.182-18.219-7.126l9.525-3.403 5.143-8.708c-.156 5.793 1.558 13.517 3.551 19.237z" fill="#3f3d56"/><path fill="#3f3d56" d="M562.943 284.814l63.179-76.553 1.543 1.274-63.18 76.552z"/><path d="M556.021 294.751c1.991-5.721 3.705-13.445 3.55-19.238l5.144 8.709 9.523 3.402c-5.718.943-12.977 4.088-18.217 7.127z" fill="#3f3d56"/><path d="M1016.53 377.856s0 146-23 199l-53 119s-34-2-36-16l40-124 24-73 6-114z" fill="#2f2e41"/><path d="M983.53 381.856l-9 61 6 134 3 74s12 33 8 36l-8 6s-32-4-33-6-20-153-20-153-39-122-37-124 11-32 11-32z" fill="#2f2e41"/><path d="M990.53 682.856l4 23s11 47 0 47-31-13-32-21 2-44 2-44z" fill="#2f2e41"/><path d="M939.53 690.856s8 16 13 18 27.77 15.083 14.385 23.542-27.385.458-27.385.458l-46-25s6-25 15-27 31 10 31 10z" fill="#2f2e41"/><circle cx="929.53" cy="120.856" r="36" fill="#ffb8b8"/><path d="M959.53 123.856s7 46 14 52-15 27-25 26-21-23-21-23 3-29-2-37 34-18 34-18z" fill="#ffb8b8"/><path d="M951.53 182.856l16.985-15.678a64.292 64.292 0 0 0 20.015 16.678c13 7-25 79-25 79l-61-76s19.402-12.896 25.701-17.948z" fill="#3f3d56"/><path d="M961.53 243.856s26.8-46.719 23.9-61.86c0 0 39.1 9.86 41.1 22.86s-19 60-19 60 17 119 7 120-110 2-112-3 2-20-4-25-13-2-10-10 16-18 12-24-5-4-4-8-2-57-2-57-21-58-16-62 31.228-13.86 31.228-13.86z" fill="#3f3d56"/><path d="M1041.53 399.856s-3 40-20 38 3-45 3-45zm-149-1s6 24 13 22v-28l-3-5z" fill="#ffb8b8"/><path d="M958.892 126.035a6.222 6.222 0 0 0-1.027-2.895 4.694 4.694 0 0 0-2.188-1.386 9.833 9.833 0 0 0-11.717 5.02c-.923 2.014-1.367 4.608-3.392 5.505-2.354 1.042-4.966-1.177-5.89-3.58s-.95-5.126-2.183-7.387c-1.462-2.68-4.418-4.26-7.405-4.892-2.475-.525-5.504-.8-6.62-3.07a6.078 6.078 0 0 1-.452-2.745 28.964 28.964 0 0 1 1.787-9.791c-9.797-1.957-18.512 7.604-28.5 7.758a7.525 7.525 0 0 1-3.676-.72c-2.217-1.184-3.18-3.809-3.848-6.231q-1.064-3.86-1.751-7.81l3.2 1.467a12.55 12.55 0 0 1-1.426-5.512 13.192 13.192 0 0 1 4.918.415l.233-5.734c2.471 3.134 7.4 2.032 11.119.581 7.176-2.8 14.316-5.83 21.849-7.446s15.606-1.735 22.729 1.2c7.485 3.085 13.256 9.22 18.34 15.522 2.817 3.493 5.541 7.164 7.063 11.386a27.595 27.595 0 0 1-.06 17.6c-1.64 5.134-4.688 11.345-8.792 14.902-1.435-3.634-1.63-8.27-2.311-12.157z" fill="#2f2e41"/><path d="M890.53 192.856l-13 3s-15 16-16 31-1 90-1 90l19 62s-2 14 0 14 3-3 3 1-5 0 0 4l10 8 16.713-22.158s1.287-8.842-1.713-10.842-3-3-2-6 3-4 2-6-4-5-4-7 0-4-1-5-8-25-8-25l4-78zm126 5l10 5s16 48 16 90 3 70 3 70 5 12 3 12-4 0-2 3 3 2 2 5-2-2-1 3 0 7-2 7-2 13-2 13l-24-9s4-5 3-7a9.965 9.965 0 0 1-1-4s5-1 0-3-3-2-2-8 4-5 1-6-21-94-21-94z" fill="#3f3d56"/><circle cx="951.515" cy="183.178" r="3" fill="#2f2e41"/><circle cx="951.515" cy="193.178" r="3" fill="#2f2e41"/></svg>
